Papirus/22x22/panel/input-keyboard-virtual-off.svg

<?xml version="1.0" encoding="UTF-8" standalone="no"?>
<svg id="svg7384" xmlns:rdf="http://www.w3.org/1999/02/22-rdf-syntax-ns#" style="enable-background:new" xmlns="http://www.w3.org/2000/svg" xmlns:osb="http://www.openswatchbook.org/uri/2009/osb" height="22" width="22" version="1.1" xmlns:cc="http://creativecommons.org/ns#" xmlns:dc="http://purl.org/dc/elements/1.1/">
 <metadata id="metadata90">
  <rdf:RDF>
   <cc:Work rdf:about="">
    <dc:format>image/svg+xml</dc:format>
    <dc:type rdf:resource="http://purl.org/dc/dcmitype/StillImage"/>
   </cc:Work>
  </rdf:RDF>
 </metadata>
 <path id="rect6069-5-5" opacity=".3" d="m5 5s-2 0-2 2v8c0 2 2 2 2 2h11s2 0 2-2v-8c0-2-2-2-2-2h-11zm0.25 2h1.5c0.1385 0 0.25 0.1115 0.25 0.25v1.5c0 0.1385-0.1115 0.25-0.25 0.25h-1.5c-0.1385 0-0.25-0.1115-0.25-0.25v-1.5c0-0.1385 0.1115-0.25 0.25-0.25zm3 0h1.5c0.1385 0 0.25 0.1115 0.25 0.25v1.5c0 0.1385-0.1115 0.25-0.25 0.25h-1.5c-0.1385 0-0.25-0.1115-0.25-0.25v-1.5c0-0.1385 0.1115-0.25 0.25-0.25zm3 0h1.5c0.138 0 0.25 0.1115 0.25 0.25v1.5c0 0.1385-0.112 0.25-0.25 0.25h-1.5c-0.138 0-0.25-0.1115-0.25-0.25v-1.5c0-0.1385 0.112-0.25 0.25-0.25zm3 0h1.5c0.138 0 0.25 0.1115 0.25 0.25v1.5c0 0.1385-0.112 0.25-0.25 0.25h-1.5c-0.138 0-0.25-0.1115-0.25-0.25v-1.5c0-0.1385 0.112-0.25 0.25-0.25zm-9 3h1.5c0.1385 0 0.25 0.112 0.25 0.25v1.5c0 0.138-0.1115 0.25-0.25 0.25h-1.5c-0.1385 0-0.25-0.112-0.25-0.25v-1.5c0-0.138 0.1115-0.25 0.25-0.25zm3 0h1.5c0.1385 0 0.25 0.112 0.25 0.25v1.5c0 0.138-0.1115 0.25-0.25 0.25h-1.5c-0.1385 0-0.25-0.112-0.25-0.25v-1.5c0-0.138 0.1115-0.25 0.25-0.25zm3 0h1.5c0.1385 0 0.25 0.1115 0.25 0.25v1.5c0 0.138-0.112 0.25-0.25 0.25h-1.5c-0.138 0-0.25-0.112-0.25-0.25v-1.5c0-0.138 0.112-0.25 0.25-0.25zm3 0h1.5c0.1385 0 0.25 0.1115 0.25 0.25v1.5c0 0.138-0.112 0.25-0.25 0.25h-1.5c-0.138 0-0.25-0.112-0.25-0.25v-1.5c0-0.138 0.112-0.25 0.25-0.25zm-7 3h6.5c0.1385 0 0.25 0.1115 0.25 0.25v1.5c0 0.138-0.112 0.25-0.25 0.25h-6.5c-0.1385 0-0.25-0.112-0.25-0.25v-1.5c0-0.138 0.1115-0.25 0.25-0.25z" fill="#fff"/>
</svg>

<?xml version="1.0" encoding="UTF-8" standalone="no"?>
<svg
   xmlns:osb="http://www.openswatchbook.org/uri/2009/osb"
   xmlns:dc="http://purl.org/dc/elements/1.1/"
   xmlns:cc="http://creativecommons.org/ns#"
   xmlns:rdf="http://www.w3.org/1999/02/22-rdf-syntax-ns#"
   xmlns:svg="http://www.w3.org/2000/svg"
   xmlns="http://www.w3.org/2000/svg"
   height="22"
   id="svg7384"
   style="enable-background:new"
   version="1.1"
   width="22">
  <metadata
     id="metadata90">
    <rdf:RDF>
      <cc:Work
         rdf:about="">
        <dc:format>
                    image/svg+xml
                </dc:format>
        <dc:type
           rdf:resource="http://purl.org/dc/dcmitype/StillImage" />
        <dc:title>
        Paper Symbolic Icon Theme
    </dc:title>
      </cc:Work>
    </rdf:RDF>
  </metadata>
  <title
     id="title8473">
        Paper Symbolic Icon Theme
    </title>
  <defs
     id="defs7386">
    <linearGradient
       id="linearGradient5606"
       osb:paint="solid">
      <stop
         id="stop5608"
         offset="0"
         style="stop-color:#000000;stop-opacity:1;" />
    </linearGradient>
  </defs>
  <path
     style="opacity:0.3;fill:#ffffff;fill-opacity:1;stroke:none"
     id="rect6069-5-5"
     d="M 5,5 C 5,5 3,5 3,7 l 0,8 c 0,2 2,2 2,2 l 11,0 c 0,0 2,0 2,-2 L 18,7 C 18,5 16,5 16,5 L 5,5 Z m 0.25,2 1.5,0 C 6.8885,7 7,7.1115 7,7.25 l 0,1.5 C 7,8.8885 6.8885,9 6.75,9 L 5.25,9 C 5.1115,9 5,8.8885 5,8.75 L 5,7.25 C 5,7.1115 5.1115,7 5.25,7 Z m 3,0 1.5,0 C 9.8885,7 10,7.1115 10,7.25 l 0,1.5 C 10,8.8885 9.8885,9 9.75,9 L 8.25,9 C 8.1115,9 8,8.8885 8,8.75 L 8,7.25 C 8,7.1115 8.1115,7 8.25,7 Z m 3,0 1.5,0 C 12.8885,7 13,7.1115 13,7.25 l 0,1.5 C 13,8.8885 12.8885,9 12.75,9 l -1.5,0 C 11.1115,9 11,8.8885 11,8.75 l 0,-1.5 C 11,7.1115 11.1115,7 11.25,7 Z m 3,0 1.5,0 C 15.8885,7 16,7.1115 16,7.25 l 0,1.5 C 16,8.8885 15.8885,9 15.75,9 l -1.5,0 C 14.1115,9 14,8.8885 14,8.75 l 0,-1.5 C 14,7.1115 14.1115,7 14.25,7 Z m -9,3 1.5,0 C 6.8885,10 7,10.1115 7,10.25 l 0,1.5 C 7,11.8885 6.8885,12 6.75,12 l -1.5,0 C 5.1115,12 5,11.8885 5,11.75 l 0,-1.5 C 5,10.1115 5.1115,10 5.25,10 Z m 3,0 1.5,0 C 9.8885,10 10,10.1115 10,10.25 l 0,1.5 C 10,11.8885 9.8885,12 9.75,12 l -1.5,0 C 8.1115,12 8,11.8885 8,11.75 l 0,-1.5 C 8,10.1115 8.1115,10 8.25,10 Z m 3,0 1.5,0 c 0.1385,0 0.25,0.1115 0.25,0.25 l 0,1.5 C 13,11.8885 12.8885,12 12.75,12 l -1.5,0 C 11.1115,12 11,11.8885 11,11.75 l 0,-1.5 C 11,10.1115 11.1115,10 11.25,10 Z m 3,0 1.5,0 c 0.1385,0 0.25,0.1115 0.25,0.25 l 0,1.5 C 16,11.8885 15.8885,12 15.75,12 l -1.5,0 C 14.1115,12 14,11.8885 14,11.75 l 0,-1.5 C 14,10.1115 14.1115,10 14.25,10 Z m -7,3 6.5,0 c 0.1385,0 0.25,0.1115 0.25,0.25 l 0,1.5 C 14,14.8885 13.8885,15 13.75,15 l -6.5,0 C 7.1115,15 7,14.8885 7,14.75 l 0,-1.5 C 7,13.1115 7.1115,13 7.25,13 Z" />
</svg>
